brandFactory_export/2.Regular/Ecológico_2Regular.svg

<?xml version="1.0" encoding="UTF-8"?>
<svg width="24px" height="24px" viewBox="0 0 24 24" version="1.1" xmlns="http://www.w3.org/2000/svg" xmlns:xlink="http://www.w3.org/1999/xlink">
    <title>2.Regular/Ecológico_2Regular</title>
    <g id="Symbols" stroke="none" stroke-width="1" fill="none" fill-rule="evenodd">
        <g id="2.Regular/Ecológico_2Regular" fill="#5CB615" fill-rule="nonzero">
            <path d="M11.4758067,22.004084 C11.4577893,22.005042 11.4314306,22.003247 11.4059003,21.9996569 L11.4789916,22.005042 C11.1663866,22.005042 10.8941176,21.7798319 10.8403361,21.4605042 C10.7764706,21.0638655 10.7428571,20.4756303 10.6991597,19.7294118 C10.594958,17.8705882 10.4369748,15.0571429 9.62689076,12.4655462 C9.44254273,11.8747042 9.23229233,11.324678 8.99655249,10.8158548 C8.10834385,11.4745417 6.91346266,11.8168067 5.43865546,11.8168067 C2.08218997,11.8168067 0.175933219,10.0474281 0.0293090764,6.82404524 C0.0208237736,6.78390953 0.0168067227,6.74284203 0.0168067227,6.70084034 L0.0168067227,2.97647059 C0.0201680672,1.8907563 0.904201681,1.01008403 1.98655462,1.01008403 L5.43865546,1.01008403 L5.43865546,1.01008403 C8.93109244,1.01008403 10.8537815,2.92941176 10.8537815,6.41512605 C10.8537815,7.80614416 10.5470001,8.94776828 9.95593206,9.81728937 C11.1023586,12.0649001 11.5708014,14.7123385 11.7959022,16.9422814 C12.0446923,16.0856844 12.3511261,15.1778127 12.7260504,14.2806723 C12.9570559,13.7260305 13.202846,13.2052378 13.4622295,12.7194857 C12.9921242,11.9016692 12.7495798,10.8714743 12.7495798,9.64537815 C12.7495798,6.19327731 14.6722689,4.2907563 18.1647059,4.2907563 L21.6134454,4.2907563 C22.6991597,4.2907563 23.5831933,5.16470588 23.5831933,6.24033613 L23.5831933,9.92773109 C23.5831933,9.96445124 23.5801006,10.0004801 23.5741575,10.035564 C23.4316688,13.2386175 21.5218957,14.9966387 18.1647059,14.9966387 C16.5468429,14.9966387 15.2658452,14.5890822 14.3567994,13.8083876 C14.2065697,14.1165349 14.0606595,14.4397904 13.9193277,14.7781513 C12.7529412,17.5680672 12.2756303,20.4957983 12.1210084,21.4605042 C12.0709178,21.7579173 11.8283834,21.9736876 11.545485,22.0019024 L11.5831933,21.9915966 C11.5515191,22.0010989 11.5168602,22.0046318 11.4848416,22.0050078 L11.4853837,22.0050348 L11.4758067,22.004084 Z M21.6168067,5.57478992 L18.1647059,5.57478992 C15.3848739,5.57478992 14.0336134,6.90588235 14.0336134,9.64201681 C14.0336134,10.3035857 14.1126111,10.8828163 14.2716994,11.3808487 C14.5424099,10.9864188 14.8241102,10.6251391 15.1159664,10.297479 C16.2521008,9.02689076 17.5596639,8.24705882 19.005042,7.98487395 C19.3579832,7.9210084 19.6941176,8.15294118 19.7579832,8.50588235 C19.8218487,8.85882353 19.589916,9.19495798 19.2369748,9.25882353 C17.6718632,9.54361055 16.3006385,10.5968945 15.1449989,12.3969769 L14.9953802,12.6377894 C15.6797525,13.3535276 16.7326713,13.7058824 18.1647059,13.7058824 C20.9445378,13.7058824 22.2991597,12.3747899 22.2991597,9.64201681 L22.2991597,6.24033613 C22.2991597,5.87394958 21.9932773,5.57478992 21.6168067,5.57478992 Z M5.43865546,2.30084034 L1.98655462,2.30084034 C1.61344538,2.30084034 1.31092437,2.60672269 1.30756303,2.97983193 L1.30863925,6.35712444 C1.31015246,6.37512959 1.31092437,6.3933529 1.31092437,6.41176471 C1.31092437,9.17815126 2.66218487,10.5226891 5.43865546,10.5226891 C6.7166223,10.5226891 7.69192917,10.2378326 8.37244298,9.66058066 C7.47053379,8.2197642 6.30190389,7.22161239 4.88067227,6.67731092 C4.54789916,6.54957983 4.37983193,6.17647059 4.50756303,5.84033613 C4.63529412,5.50756303 5.00840336,5.3394958 5.34453782,5.46722689 C7.02348418,6.10898267 8.26680781,7.20437963 9.19153551,8.53357407 C9.43966805,7.955412 9.56302521,7.2486508 9.56302521,6.41176471 C9.56302521,3.64537815 8.21512605,2.30084034 5.43865546,2.30084034 Z" id="Ecológico_2Regular"></path>
        </g>
    </g>
</svg>

<svg width="24" height="24" viewBox="0 0 24 24" xmlns="http://www.w3.org/2000/svg"><path d="M11.476 22.004a.4.4 0 01-.07-.004l.073.005a.648.648 0 01-.639-.544c-.064-.397-.097-.985-.14-1.732-.105-1.858-.263-4.672-1.073-7.263-.184-.591-.395-1.141-.63-1.65-.889.659-2.084 1-3.558 1-3.357 0-5.263-1.769-5.41-4.992a.594.594 0 01-.012-.123V2.976a1.974 1.974 0 011.97-1.966h3.452c3.492 0 5.415 1.92 5.415 5.405 0 1.391-.307 2.533-.898 3.402 1.146 2.248 1.615 4.895 1.84 7.125.249-.856.555-1.764.93-2.661.231-.555.477-1.076.736-1.562-.47-.817-.712-1.848-.712-3.074 0-3.452 1.922-5.354 5.415-5.354h3.448c1.086 0 1.97.874 1.97 1.95v3.687a.645.645 0 01-.009.108c-.142 3.203-2.052 4.96-5.41 4.96-1.617 0-2.898-.407-3.807-1.188-.15.309-.296.632-.438.97-1.166 2.79-1.643 5.718-1.798 6.683a.652.652 0 01-.576.54l.038-.01a.363.363 0 01-.098.014h-.01zm10.14-16.43h-3.451c-2.78 0-4.131 1.332-4.131 4.068 0 .662.079 1.24.238 1.739a10.9 10.9 0 01.844-1.084c1.136-1.27 2.444-2.05 3.889-2.312a.646.646 0 01.753.52.646.646 0 01-.521.754c-1.565.285-2.936 1.338-4.092 3.138l-.15.24c.685.717 1.738 1.069 3.17 1.069 2.78 0 4.134-1.331 4.134-4.064V6.24a.675.675 0 00-.682-.665zM5.44 2.302H1.987a.684.684 0 00-.68.679l.002 3.377a.652.652 0 01.002.055c0 2.766 1.351 4.11 4.128 4.11 1.278 0 2.253-.284 2.933-.861-.901-1.441-2.07-2.44-3.491-2.984a.649.649 0 01.464-1.21c1.678.642 2.922 1.737 3.847 3.067.248-.579.371-1.285.371-2.122 0-2.767-1.348-4.111-4.124-4.111z" fill="#5CB615" fill-rule="nonzero"/></svg>
